icons/src/scalable/default/places/folder-pcloud-symbolic.svg

<svg xmlns="http://www.w3.org/2000/svg" width="16" height="16" version="1.1">
 <defs>
  <style id="current-color-scheme" type="text/css">
   .ColorScheme-Text { color:#363636; }
  </style>
 </defs>
 <path style="fill:currentColor" class="ColorScheme-Text" d="M 8 2 A 5 5 0 0 0 3.3964844 5.0488281 A 4 4 0 0 0 0 9 A 4 4 0 0 0 3.8085938 12.990234 L 3.8085938 13 L 4 13 L 13.523438 13 A 2.4761905 2.4761905 0 0 0 16 10.523438 A 2.4761905 2.4761905 0 0 0 14.822266 8.4179688 A 2.5 2.5 0 0 0 15 7.5 A 2.5 2.5 0 0 0 12.578125 5.0039062 A 5 5 0 0 0 8 2 z M 6 5 L 7 5 L 9 5 L 10 5 L 10 6 L 10 7 L 10 8 L 9 8 L 7 8 L 7 11 L 6 11 L 6 8 L 6 7 L 6 6 L 6 5 z M 7 6 L 7 7 L 9 7 L 9 6 L 7 6 z" />
</svg>

<svg version="1.1" viewBox="0 0 16 16" xmlns="http://www.w3.org/2000/svg">
 <path d="m8 2a5 5 0 0 0-4.6035 3.0488 4 4 0 0 0-3.3965 3.9512 4 4 0 0 0 3.8086 3.9902v0.009766h0.19141 9.5234a2.4762 2.4762 0 0 0 2.4766-2.4766 2.4762 2.4762 0 0 0-1.1777-2.1055 2.5 2.5 0 0 0 0.17773-0.91797 2.5 2.5 0 0 0-2.4219-2.4961 5 5 0 0 0-4.5781-3.0039zm-2 3h1 2 1v1 1 1h-1-2v3h-1v-3-1-1-1zm1 1v1h2v-1h-2z" fill="#363636"/>
</svg>
